source/img/cause-04.svg

<svg width="64" height="65" viewBox="0 0 64 65" fill="none" xmlns="http://www.w3.org/2000/svg">
<path d="M64 32.9053C64 64.9053 64 64.9053 32 64.9053C0 64.9053 0 64.9053 0 32.9053C0 0.905273 0 0.905273 32 0.905273C64 0.905273 64 0.905273 64 32.9053Z" fill="#F7B519"/>
<path fill-rule="evenodd" clip-rule="evenodd" d="M41.2745 21.7913H38.33C38.051 19.6087 36.1835 17.917 33.929 17.917H30.056C27.8015 17.917 25.934 19.6072 25.655 21.7898L22.7255 21.7913C19.568 21.7913 17 24.3551 17 27.5059V32.7101C17 33.0884 17.189 33.4411 17.5055 33.6498C20.594 35.6898 24.2495 37.0482 28.076 37.5811C28.6445 37.6652 29.1665 37.3094 29.3165 36.763C29.651 35.5457 30.7235 34.7276 31.985 34.7276C33.233 34.7276 34.316 35.5637 34.619 36.757C34.7465 37.2614 35.201 37.6066 35.708 37.6066C35.7605 37.6066 35.8115 37.6036 35.864 37.5961C39.716 37.0632 43.388 35.6973 46.481 33.6498C46.796 33.4396 46.985 33.0884 46.985 32.7101V27.5059C46.985 24.3551 44.423 21.7913 41.2745 21.7913ZM44.735 32.0947C42.2705 33.6273 39.4295 34.7005 36.4385 35.2274C35.6165 33.5657 33.9065 32.476 31.985 32.476C30.0785 32.476 28.361 33.5627 27.5165 35.2139C24.5435 34.69 21.7115 33.6228 19.25 32.0947V27.5059C19.25 25.5965 20.8085 24.0429 22.727 24.0429L26.744 24.0399C27.044 24.0399 27.329 23.9213 27.5405 23.7097C27.7505 23.4965 27.869 23.2113 27.869 22.9126L27.8675 22.3572C27.8675 21.1503 28.85 20.1686 30.056 20.1686H33.929C34.9385 20.1686 35.792 20.8576 36.0425 21.7913H31.9925C31.3715 21.7913 30.8675 22.2956 30.8675 22.9171C30.8675 23.5385 31.3715 24.0429 31.9925 24.0429H41.2745C43.1825 24.0429 44.735 25.5965 44.735 27.5059V32.0947ZM33.1172 38.0065V39.9489C33.1172 40.5704 32.6132 41.0747 31.9922 41.0747C31.3712 41.0747 30.8672 40.5704 30.8672 39.9489V38.0065C30.8672 37.3851 31.3712 36.8807 31.9922 36.8807C32.6132 36.8807 33.1172 37.3851 33.1172 38.0065ZM45.8225 37.0187C45.233 37.0187 44.7635 37.478 44.7185 38.0545C44.7185 38.0545 44.4875 40.6798 44.4395 41.5084C44.384 42.4256 44.012 43.4238 43.4915 44.0498C42.758 44.9354 41.945 45.2822 40.592 45.2852C39.704 45.2867 34.9145 45.2882 31.2965 45.2882C30.674 45.2882 30.17 45.7925 30.17 46.414C30.17 47.0354 30.674 47.5398 31.295 47.5398C34.787 47.5398 39.758 47.5383 40.5965 47.5368C42.5975 47.5323 44.069 46.8808 45.224 45.4878C46.0535 44.4881 46.5995 43.0515 46.685 41.6435C46.719 41.0645 46.8353 39.5624 46.9 38.7256L46.9 38.7254L46.9002 38.7235C46.9267 38.3814 46.9445 38.1511 46.9445 38.1415C46.9445 37.5216 46.442 37.0187 45.8225 37.0187ZM23.3933 45.2847C23.6873 45.2862 24.2963 45.2862 25.0958 45.2862C25.7168 45.2862 26.2253 45.7906 26.2253 46.412C26.2253 47.0335 25.7153 47.5378 25.0928 47.5378C24.2828 47.5378 23.6918 47.5378 23.3903 47.5363C21.3878 47.5318 19.9163 46.8803 18.7613 45.4858C17.9333 44.4876 17.3858 43.0511 17.3018 41.6431C17.2673 41.0724 17.1535 39.6051 17.0882 38.7618C17.06 38.3985 17.0408 38.151 17.0408 38.1411C17.0408 37.5211 17.5433 37.0183 18.1628 37.0183C18.7523 37.0183 19.2203 37.4776 19.2668 38.0555C19.2668 38.0555 19.4978 40.6809 19.5473 41.508C19.6028 42.4251 19.9733 43.4234 20.4938 44.0478C21.2288 44.9364 22.0418 45.2817 23.3933 45.2847Z" fill="#343A41"/>
</svg>

<svg width="64" height="65" fill="none" xmlns="http://www.w3.org/2000/svg"><path d="M64 32.905c0 32 0 32-32 32s-32 0-32-32 0-32 32-32 32 0 32 32z" fill="#F7B519"/><path fill-rule="evenodd" clip-rule="evenodd" d="M41.275 21.791H38.33a4.445 4.445 0 00-4.401-3.874h-3.873a4.444 4.444 0 00-4.401 3.873l-2.93.001c-3.157 0-5.725 2.564-5.725 5.715v5.204c0 .378.189.731.506.94 3.088 2.04 6.744 3.398 10.57 3.931a1.115 1.115 0 001.24-.818 2.74 2.74 0 012.669-2.035c1.248 0 2.331.836 2.634 2.029a1.126 1.126 0 001.245.84c3.852-.534 7.524-1.9 10.617-3.947a1.13 1.13 0 00.504-.94v-5.204a5.72 5.72 0 00-5.71-5.715zm3.46 10.304c-2.465 1.532-5.306 2.605-8.297 3.132a4.96 4.96 0 00-4.453-2.751 5.032 5.032 0 00-4.468 2.738c-2.973-.524-5.805-1.591-8.267-3.12v-4.588a3.473 3.473 0 013.477-3.463l4.017-.003a1.123 1.123 0 001.125-1.127l-.002-.556c0-1.207.983-2.188 2.189-2.188h3.873c1.01 0 1.863.689 2.113 1.622h-4.05a1.126 1.126 0 000 2.252h9.283a3.466 3.466 0 013.46 3.463v4.589zm-11.618 5.912v1.942a1.126 1.126 0 11-2.25 0v-1.942a1.126 1.126 0 012.25 0zm12.706-.988c-.59 0-1.06.459-1.105 1.035 0 0-.23 2.626-.279 3.454-.055.918-.427 1.916-.947 2.542-.734.885-1.547 1.232-2.9 1.235-.888.002-5.678.003-9.295.003a1.126 1.126 0 00-.002 2.252c3.492 0 8.463-.002 9.301-.003 2.002-.005 3.473-.656 4.628-2.05.83-.999 1.376-2.436 1.461-3.843.034-.58.15-2.082.215-2.918v-.002c.027-.343.044-.573.044-.582 0-.62-.502-1.123-1.122-1.123zm-22.43 8.266l1.703.001c.62 0 1.13.505 1.13 1.126 0 .621-.51 1.126-1.133 1.126-.81 0-1.401 0-1.703-.002-2.002-.004-3.474-.656-4.629-2.05-.828-.998-1.375-2.435-1.46-3.843-.034-.57-.147-2.038-.213-2.881l-.047-.62c0-.62.502-1.124 1.122-1.124.59 0 1.057.46 1.104 1.038 0 0 .23 2.625.28 3.452.056.917.426 1.915.947 2.54.735.888 1.548 1.234 2.9 1.237z" fill="#343A41"/></svg>
